X:1
T:King Henry Fifth's Conquest of France
M:3/4
L:1/8
K:D
 z2 z EE F| E3 CB, B,| A,3 EE F| F3 EF A| B2 GG AB| B,2 A,A, B,A,|\
 E3 FF F| E3 CB, B,| A,3 z2 z|
